!!!!SEGMENT: pl-wn--sd-xvi-qu-273--033_gomolka-mikolaj--pana-sercem-wesolym-wspomiencie-cnotliwi.krn
!!!cenid: 15xx:238
!!!COM: Gomółka, Mikołaj
!!!COM-rismid: pe30013343
!!!CDT: ~1535->1591/04/30
!!!CNT: Polish
!!!GTL: Melodiae na psalterz polski
!!!OTL: XXXIII. Pana sercem wesołym wspomieńcie, cnotliwi,
!!!PDT: 1580
!!!AGN: Sacred
!!!SMS-siglum: PL-Wn
!!!SMS-shelfmark: SD XVI.Qu.273
!!!SMS-shelfwork: 033 G
!!!NIFC-rismid:
!!!ONB-nifc: Melodiae na psalterz polski
**kern	**text	**kern	**text	**kern	**text	**kern	**text
*part4	*part4	*part3	*part3	*part2	*part2	*part1	*part1
*ʃtaff4	*ʃtaff4	*ʃtaff3	*ʃtaff3	*ʃtaff2	*ʃtaff2	*ʃtaff1	*ʃtaff1
*clefF3	*	*clefC3	*	*clefC2	*	*clefG2	*
*k[b-]	*	*k[b-]	*	*k[b-]	*	*k[b-]	*
*F:	*	*F:	*	*F:	*	*F:	*
*M4/2	*	*M4/2	*	*M4/2	*	*M4/2	*
*met(C|)	*	*met(C|)	*	*met(C|)	*	*met(C|)	*
=	=	=	=	=	=	=	=
2F/	Pa-	2c/	Pa-	2f	Pa-	2a	Pa-
2F/	-ná	2c/	-ná	2f	-ná	2a	-ná
4B-	ʃer-	4d	ʃer-	2.b-	ʃer-	2dd	ʃer-
4c	.	4e	.	.	.	.	.
4d	-cem	4f	-cem	.	.	2dd	-cem
4B-	.	4d	.	4b-	-cem	.	.
=3-	=3	=3	=3	=3	=3	=3	=3
4c	we-	4e	we-	4a	we-	2.cc	we-
4d	.	2f	.	8gL	.	.	.
.	.	.	.	8fJ	.	.	.
2c	-ʃo-	.	.	8g	-ʃo-	.	.
.	.	.	.	4a	.	.	.
.	.	4e	-ʃo-	.	.	4cc	-ʃo-
.	.	.	.	8g	.	.	.
1F	-łym	1f	-łym	1a	-łym	1cc	-łym
=4-	=4	=4	=4	=4	=4	=4	=4
2c	wʃpo-	2e	wʃpo-	2.g	wʃpo-	4cc	wʃpo-
.	.	.	.	.	.	4dd	.
2c	-m(ień-	2e	-mień-	.	.	4ee	-mień-
.	.	.	.	4a	.	4cc	.
2B-	.	2d	.	2b-	-mień-	4dd	.
.	.	.	.	.	.	4ee	.
2A	-ćie)	2c/	-(ćie)	4cc	-ćie	4ff	-ćie
.	.	.	.	4b-	.	4ee	.
=5-	=5	=5	=5	=5	=5	=5	=5
2F/	cnot-	2c/	cnot-	2a	cnot-	2dd	cnot-
2G	-li-	2B-	-li-	4g	-li-	2dd	-li-
.	.	.	.	4f	.	.	.
1C	-wi	1c	-wi	1e	-(wi)	1cc	-wi
=6-	=6	=6	=6	=6	=6	=6	=6
2c	Pá-	2g	Pa-	2g	Pá-	4ee	Pá-
.	.	.	.	.	.	4ff	.
2c	-(ná)	2e	-(ná)	2cc	-(ná)	4gg	-(ná)
.	.	.	.	.	.	4ee	.
2A	prӡyʃ-	2a	prӡyʃ-	2cc	prӡyʃ-	2ff	prӡyʃ-
2F/	-toy-	2a	-toy-	2cc	-toy-	2ff	-toy-
!!LO:PB:g=original
=7-	=7	=7	=7	=7	=7	=7	=7
2c	-nie	1g	-nie	2.cc	-nie	1ee	-nie
2C	.	.	.	.	.	.	.
.	.	.	.	4b-	.	.	.
2D	chwa-	2f	chwa-	2a	chwa-	2dd	chwa-
2E	-lą	2e	-lą	2g	-lą	2cc	-(lą)
=8-	=8	=8	=8	=8	=8	=8	=8
2F/	ucӡ-	2d	ucӡ-	2a	ucӡ-	2cc	ucӡ-
2G	-ći-	2d	-ći-	4g	-ći-	2b-X/	-ći-
.	.	.	.	4f	.	.	.
!!LO:N:vis=00
1C/	-wi.	1c	-wi.	1e	-wi.	1cc	-wi.
==-	==	==	==	==	==	==	==
*-	*-	*-	*-	*-	*-	*-	*-
!!!RDF**kern: l = terminal long
!!!system-decoration: s1,s2,s3,s4
!!!ENC:Anna Matuszewska
!!!END:2020-02-07
!!!URL-scan: https://polona.pl/item/melodiae-na-psalterz-polski,Nzk3MTM4ODQ/88 Scan on Polona
!!!IIIF: https://polona.pl/iiif/item/Nzk3MTM4ODQ/manifest.json
